assets/Double curly loop/Flat/double_curly_loop_flat.svg

<svg width="32" height="32" viewBox="0 0 32 32" fill="none" xmlns="http://www.w3.org/2000/svg">
<path d="M22.2592 23.7954C19.3567 23.7954 16.9954 21.4361 16.9917 18.5342C16.9898 18.3198 17.0054 16.0992 18.4673 13.8461C19.0136 13.0042 19.6904 12.2636 20.4904 11.6317C19.2173 11.2161 17.7179 11.0067 15.9998 11.0067C14.3173 11.0067 12.8404 11.2323 11.5786 11.6804C12.3479 12.2998 13.0011 13.0217 13.5311 13.8379C14.9923 16.0886 15.0104 18.3073 15.0079 18.5254V18.5279C15.0079 21.4323 12.6448 23.7954 9.74044 23.7954C6.83732 23.7954 4.47482 21.4342 4.47294 18.5311C4.47232 18.3242 4.49982 14.8229 7.20294 12.0986C7.31982 11.9811 7.43919 11.8667 7.56232 11.7554C6.24357 11.3036 4.70544 11.0498 2.96982 10.9992C2.41857 10.9829 1.98419 10.5223 2.00044 9.97044C2.01669 9.41857 2.47607 8.98419 3.02919 9.00044C5.55107 9.07419 7.73294 9.54419 9.52232 10.3973C11.2879 9.47357 13.4554 9.00732 15.9998 9.00732C18.6217 9.00732 20.8329 9.45419 22.6117 10.3411C24.3754 9.52857 26.5111 9.08044 28.9704 9.00794C28.9804 9.00794 28.9904 9.00732 29.0004 9.00732C29.5392 9.00732 29.9836 9.43607 29.9992 9.97794C30.0154 10.5298 29.5811 10.9904 29.0292 11.0067C27.3786 11.0554 25.9061 11.2867 24.6317 11.6979C24.8348 11.8792 25.0292 12.0692 25.2136 12.2686C27.6386 14.8842 27.5498 18.1179 27.5261 18.5517C27.5136 21.4454 25.1554 23.7954 22.2592 23.7954ZM22.5667 12.6236C21.5898 13.2136 20.7942 13.9623 20.1973 14.8554C18.9873 16.6667 18.9911 18.4948 18.9917 18.5129V18.5229V18.5279C18.9917 20.3298 20.4573 21.7954 22.2592 21.7954C24.0611 21.7954 25.5267 20.3298 25.5267 18.5279L25.5298 18.4448C25.5311 18.4217 25.6886 15.7036 23.7286 13.6079C23.3854 13.2417 22.9979 12.9136 22.5667 12.6236ZM9.57419 12.7048C9.23107 12.9467 8.91419 13.2148 8.62294 13.5079C6.47607 15.6717 6.47294 18.4923 6.47294 18.5211V18.5286C6.47294 20.3304 7.93857 21.7961 9.74044 21.7961C11.5423 21.7961 13.0079 20.3304 13.0079 18.5286V18.5017C13.0079 18.4886 13.0111 16.6604 11.8004 14.8486C11.2336 13.9992 10.4867 13.2804 9.57419 12.7048Z" fill="#321B41"/>
</svg>

<svg xmlns="http://www.w3.org/2000/svg" width="32" height="32" fill="none"><path fill="#321B41" d="M22.26 23.795a5.273 5.273 0 0 1-5.268-5.26c-.002-.215.013-2.436 1.475-4.689a9.178 9.178 0 0 1 2.023-2.214c-1.273-.416-2.772-.625-4.49-.625-1.683 0-3.16.225-4.421.673a9.177 9.177 0 0 1 1.952 2.158c1.461 2.25 1.48 4.47 1.477 4.687v.003a5.274 5.274 0 0 1-5.268 5.267 5.274 5.274 0 0 1-5.267-5.264c0-.207.027-3.708 2.73-6.432.117-.118.236-.232.36-.344-1.32-.451-2.858-.705-4.593-.756A1 1 0 0 1 3.03 9c2.521.074 4.703.544 6.492 1.397 1.766-.923 3.933-1.39 6.478-1.39 2.622 0 4.833.447 6.612 1.334 1.763-.812 3.9-1.26 6.358-1.333H29a1 1 0 0 1 .03 1.999c-1.651.048-3.124.28-4.398.69.203.182.397.372.582.572 2.425 2.615 2.336 5.849 2.312 6.283a5.273 5.273 0 0 1-5.267 5.243Zm.307-11.171a7.428 7.428 0 0 0-2.37 2.231c-1.21 1.812-1.206 3.64-1.205 3.658v.015a3.271 3.271 0 0 0 3.267 3.267 3.271 3.271 0 0 0 3.268-3.267l.003-.083c.001-.023.159-2.741-1.801-4.837a6.741 6.741 0 0 0-1.162-.984Zm-12.993.08c-.343.243-.66.51-.951.804-2.147 2.164-2.15 4.984-2.15 5.013v.008a3.271 3.271 0 0 0 3.267 3.267 3.271 3.271 0 0 0 3.268-3.267v-.027c0-.013.003-1.842-1.208-3.653a7.366 7.366 0 0 0-2.226-2.144Z"/></svg>
